assets/icons/zoom/in.svg

<svg height="24" width="24" xmlns="http://www.w3.org/2000/svg"><path style="fill:gray;fill-opacity:1;stroke-linecap:round" d="M10.5 3A7.5 7.5 0 0 0 3 10.5a7.5 7.5 0 0 0 7.5 7.5 7.5 7.5 0 0 0 4.938-1.855l5.208 5.209.708-.708-5.21-5.209A7.5 7.5 0 0 0 18 10.5 7.5 7.5 0 0 0 10.5 3zm0 1a6.5 6.5 0 0 1 6.5 6.5 6.5 6.5 0 0 1-6.5 6.5A6.5 6.5 0 0 1 4 10.5 6.5 6.5 0 0 1 10.5 4zM10 7v3H7v1h3v3h1v-3h3v-1h-3V7h-1z"/></svg>

<?xml version="1.0" encoding="UTF-8" standalone="no"?>
<svg viewBox="0 0 24 24" height="24" width="24" version="1.1" id="svg10" sodipodi:docname="in.svg" inkscape:version="1.1 (ce6663b3b7, 2021-05-25)"
   xmlns:inkscape="http://www.inkscape.org/namespaces/inkscape"
   xmlns:sodipodi="http://sodipodi.sourceforge.net/DTD/sodipodi-0.dtd"
   xmlns="http://www.w3.org/2000/svg"
   xmlns:svg="http://www.w3.org/2000/svg">
   <defs id="defs14" />
   <sodipodi:namedview id="namedview12" pagecolor="#ffffff" bordercolor="#666666" borderopacity="1.0" inkscape:pageshadow="2" inkscape:pageopacity="0.0" inkscape:pagecheckerboard="0" showgrid="true" inkscape:snap-page="true" inkscape:zoom="28" inkscape:cx="12.232143" inkscape:cy="10.142857" inkscape:window-width="1920" inkscape:window-height="1043" inkscape:window-x="1920" inkscape:window-y="0" inkscape:window-maximized="1" inkscape:current-layer="svg10">
      <inkscape:grid type="xygrid" id="grid912" />
   </sodipodi:namedview>
   <path id="path998" style="fill:#808080;fill-opacity:1;fill-rule:evenodd;stroke-linecap:round" d="M 10.5 3 A 7.5 7.5 0 0 0 3 10.5 A 7.5 7.5 0 0 0 10.5 18 A 7.5 7.5 0 0 0 15.4375 16.144531 L 20.646484 21.353516 L 21.353516 20.646484 L 16.144531 15.4375 A 7.5 7.5 0 0 0 18 10.5 A 7.5 7.5 0 0 0 10.5 3 z M 10.5 4 A 6.5 6.5 0 0 1 17 10.5 A 6.5 6.5 0 0 1 10.5 17 A 6.5 6.5 0 0 1 4 10.5 A 6.5 6.5 0 0 1 10.5 4 z M 10 7 L 10 10 L 7 10 L 7 11 L 10 11 L 10 14 L 11 14 L 11 11 L 14 11 L 14 10 L 11 10 L 11 7 L 10 7 z " />
</svg>
